src/icons/SVG/32px/Payment_Cards_Monochrome_OneyX3_32px.svg

<svg width="32" height="32" viewBox="0 0 32 32" fill="none" xmlns="http://www.w3.org/2000/svg">
<g id="Square"> </g>
<g id="Icon">
<path id="Subtract" fill-rule="evenodd" clip-rule="evenodd" d="M25.3019 15.8761C25.3019 21.0821 21.0816 25.3024 15.8756 25.3024C10.6695 25.3024 6.44922 21.0821 6.44922 15.8761C6.44922 10.67 10.6695 6.44971 15.8756 6.44971C21.0816 6.44971 25.3019 10.67 25.3019 15.8761ZM13.2985 18.7559C12.7519 18.7779 12.2119 18.6297 11.7531 18.3317C11.3546 18.0593 11.0662 17.6539 10.9395 17.1882L12.217 16.8136C12.2873 17.0307 12.4278 17.2183 12.6164 17.3469C12.8239 17.4779 13.0656 17.5444 13.3109 17.5379C13.5315 17.5438 13.7473 17.4728 13.9212 17.337C14.0878 17.2009 14.1799 16.9937 14.1692 16.7789C14.1798 16.5623 14.0787 16.3554 13.9013 16.2306C13.6985 16.0951 13.4579 16.0274 13.2142 16.0371H12.5146V14.9308H13.1894C13.4172 14.9453 13.6436 14.8852 13.8343 14.7596C13.9952 14.62 14.0784 14.411 14.0576 14.199C14.0694 14.0075 13.987 13.8223 13.8368 13.7029C13.6842 13.5815 13.4934 13.5182 13.2985 13.5243C12.8888 13.5101 12.5275 13.791 12.4402 14.1916L11.1106 13.8145C11.162 13.6161 11.2458 13.4275 11.3587 13.2564C11.4799 13.0754 11.6279 12.914 11.7977 12.7776C11.9942 12.6224 12.218 12.5054 12.4576 12.4328C12.7362 12.3462 13.0266 12.3035 13.3184 12.3063C13.8782 12.281 14.4305 12.4424 14.8886 12.7652C15.2829 13.053 15.5087 13.5177 15.4914 14.0055C15.5013 14.2968 15.4263 14.5846 15.2756 14.834C15.1329 15.0626 14.9182 15.2372 14.6653 15.3302C14.9383 15.4257 15.1726 15.6077 15.3326 15.8486C15.5166 16.1294 15.6077 16.4609 15.5931 16.7962C15.6106 17.3409 15.3764 17.8633 14.9581 18.2126C14.489 18.5889 13.8993 18.7819 13.2985 18.7559ZM21.0371 13.8394L19.3677 16.1736L21.0123 18.6369H19.39L18.5267 17.3643L17.7503 18.6418H16.19L17.785 16.258L16.19 13.8394H17.8247L18.6458 15.0921L19.4743 13.8394H21.0371Z" fill="black"/>
</g>
</svg>

<svg xmlns="http://www.w3.org/2000/svg" viewBox="0 0 32 32">
  <g id="Square"> </g>
  <path fill-rule="evenodd" d="M25.302 15.876a9.426 9.426 0 01-9.426 9.426 9.426 9.426 0 119.426-9.426zm-12.003 2.88a2.642 2.642 0 01-1.546-.424 2.03 2.03 0 01-.813-1.144l1.277-.374c.07.217.21.404.4.533.207.13.449.197.694.19a.95.95 0 00.61-.2.677.677 0 00.248-.558.633.633 0 00-.268-.548 1.154 1.154 0 00-.687-.194h-.7v-1.106h.675c.228.014.455-.046.645-.171a.657.657 0 00.224-.561.588.588 0 00-.221-.496.823.823 0 00-.538-.179.848.848 0 00-.859.668l-1.33-.377a1.86 1.86 0 01.249-.559 2 2 0 011.099-.824 2.81 2.81 0 01.86-.126 2.528 2.528 0 011.57.46c.395.287.62.752.603 1.24.01.29-.065.579-.215.828a1.213 1.213 0 01-.61.496c.272.096.507.278.667.519.184.28.275.612.26.947a1.771 1.771 0 01-.635 1.417 2.48 2.48 0 01-1.66.543zm7.738-4.917l-1.67 2.335 1.645 2.463H19.39l-.863-1.273-.777 1.278h-1.56l1.595-2.384-1.595-2.419h1.635l.82 1.253.83-1.253h1.562z"/>
</svg>
